X:1
T:Golden Star Hornpipe
N:From a field recording of fiddler Jimmy Wheeler (1917-1987,
N:Portsmouth, Scioto County, southern Ohio), by John Harrod
M:C|
L:1/8
R:Reel
N:Despite title, the tune is played undotted.
Q:"Fast"
D: https://soundarchives.berea.edu/items/show/3557
Z:Transcribed by Andrew Kuntz
K:G
D2|GBAF GEDE|GBec d2 ef|gfed cBAG|FGAB AFDF|
GBAF GDB,D|GBec d2ef|gfga ecAF|G6:|
|:Bc|d2BB gg2B|e2c2 aa2g|fgfe dcBA|Bdce d2Bc|
d2 dB gg2B|e2c2 aa2g|fgfe dcBA|G2DB, G,2:|

